packages/ui-icons/svg/Line/text-background-color.svg

<svg viewBox="0 0 1920 1920" version="1.1" xmlns="http://www.w3.org/2000/svg">
    <path d="M742.8096,1024.0512 L928.7936,512.0512 L991.1296,512.0512 L1177.2416,1024.0512 L742.8096,1024.0512 Z M1347.8656,1493.9392 L1468.1856,1450.1632 L1080.8576,384.0512 L839.1936,384.0512 L451.8656,1450.1632 L572.1856,1493.9392 L696.3456,1152.0512 L1223.7056,1152.0512 L1347.8656,1493.9392 Z M1792,1728.0512 C1792,1763.2512 1763.328,1792.0512 1728,1792.0512 L192,1792.0512 C156.672,1792.0512 128,1763.2512 128,1728.0512 L128,192.0512 C128,156.8512 156.672,128.0512 192,128.0512 L1728,128.0512 C1763.328,128.0512 1792,156.8512 1792,192.0512 L1792,1728.0512 Z M1728,0.0512 L192,0.0512 C86.144,0.0512 5.68434189e-14,86.1952 5.68434189e-14,192.0512 L5.68434189e-14,1728.0512 C5.68434189e-14,1833.9072 86.144,1920.0512 192,1920.0512 L1728,1920.0512 C1833.856,1920.0512 1920,1833.9072 1920,1728.0512 L1920,192.0512 C1920,86.1952 1833.856,0.0512 1728,0.0512 L1728,0.0512 Z" stroke="none" stroke-width="1" fill-rule="evenodd"/>
</svg>

<svg viewBox="0 0 1920 1920" version="1.1" xmlns="http://www.w3.org/2000/svg">
    <path d="M742.81 1024.051l185.984-512h62.336l186.112 512H742.81zm605.056 469.888l120.32-43.776-387.328-1066.112H839.194L451.866 1450.163l120.32 43.776 124.16-341.888h527.36l124.16 341.888zM1792 1728.051c0 35.2-28.672 64-64 64H192c-35.328 0-64-28.8-64-64v-1536c0-35.2 28.672-64 64-64h1536c35.328 0 64 28.8 64 64v1536zm-64-1728H192c-105.856 0-192 86.144-192 192v1536c0 105.856 86.144 192 192 192h1536c105.856 0 192-86.144 192-192v-1536c0-105.856-86.144-192-192-192z" stroke="none" stroke-width="1" fill-rule="evenodd"/>
</svg>
